X:1
T:Title
%%score { ( 1 3 ) | ( 2 4 ) }
L:1/8
M:9/8
K:Bb
V:1 treble nm="Grand Piano"
V:3 treble 
V:2 bass 
V:4 bass 
V:1
 z3 z3[Q:1/4=100] [DF][B,D][CE] | [DF]3 [DB]3 [Fd][Fc][FB] | [Ec]3 [EG]3 [GB][FA][EG] | %3
 [DF]3 [DB]3 dcB |[M:3/4] c6 |[M:3/8] [DF][B,D][CE] |[M:9/8] [DF]3 [DB]3 [Fd][Fc][FB] | c3 G3 BAG | %8
 F3 B3 AGA |[M:3/4] [B,DB]6 |[M:3/8] z cd |[M:9/8] [Ge]3 [EG]3 z3 | [DF]3 [Fd]3 z3 | %13
 [=Ec]3 [EG]3 z3 | c6 z3 | [DF]3 [DB]3 z3 | c3 [EG]3 z3 | [DF]3 [DB]3 z3 |[M:3/4] [DB]6 |] %19
V:2
 z3 z3 [B,,B,][B,,F,][B,,F,] | [B,,B,]3 [B,,F,]3 [B,,B,][C,A,][D,B,] | %2
 [E,G,]3 [E,B,]3 [E,B,][E,B,][E,B,] | [B,,B,]3 [B,,B,]3[K:treble] [B,F][A,CF][K:bass][G,C=E] | %4
[M:3/4] [F,A,F]6 |[M:3/8] [B,,B,][B,,F,][B,,F,] |[M:9/8] [B,,B,]3 [B,,F,]3 [B,,B,][C,A,][D,B,] | %7
 [E,G,E]3 [E,B,E]3 [=E,B,_D][E,B,D][E,B,D] | [F,B,D]3 [F,B,D]3 [F,CE][F,CE][F,CE] |[M:3/4] B,,6 | %10
[M:3/8][K:treble] BA_A |[M:9/8][K:bass] [E,B,]E,E, E,2 E,[K:treble] EFE | %12
 B,,B,,B,, [B,,B,]2 B,,[K:treble] DEF | z3 z3 .G,3[K:treble] | F-[A,F][K:bass]B, [F,A,]3 DB,C | %15
 B,,B,,B,, [B,,F,]2 B,,[K:treble] FED | E3 z3 ._D3 | F,F,F, F,2 F, [F,CE][F,CE][F,E] | %18
[M:3/4] [B,,F,]6 |] %19
V:3
 x9 | x9 | x9 | x9 |[M:3/4] x6 |[M:3/8] x3 |[M:9/8] x9 | x9 | x9 |[M:3/4] x6 |[M:3/8] x3 | %11
[M:9/8] z B,B, B,2 B, GAG | B,B,B, z2 B, Bcd | z B,B, C2 C [=EB]AG | z C=E _E3 FDE | %15
 B,B,B, z2 F, dcB | z G,G, B,2 B, BA[B,_DG] | B,B,B, B,2 B, AGA |[M:3/4] x6 |] %19
V:4
 x9 | x9 | x9 | x6[K:treble] x2[K:bass] x |[M:3/4] x6 |[M:3/8] x3 |[M:9/8] x9 | x9 | x9 | %9
[M:3/4] x6 |[M:3/8][K:treble] x3 |[M:9/8][K:bass] x6[K:treble] x3 | x6[K:treble] x3 | %13
 [C,B,]C,C, C,2 C, C,-[C,C=E][K:treble][B,CE] | .[A,C]3[K:bass] z3 z3 | x6[K:treble] x3 | %16
 [E,G,]E,E, E,2 E, [=E,B,]-[E,B,_D]E, | x9 |[M:3/4] x6 |] %19

